X:21065 
T:GALLOPING YOUNG THING, The  
B:DMI.0309
Z:Nordberg/Black
N:Accented c's suggest that this might be better as a modal tune. 
To hear the DMI setting, replace G with D in the K: field.
R:jig
%Q:1/4=160
M:6/8
L:1/8
K:G
"D mix"
G|FDD cAc|ded cAG|FDD cAF|GFG BAG|
FDD cAc|ded cde|fed cAF|GFE D2:|
e|fgf efe|ded cde|fgf efd|cAA A2e|
fgf efe|ded cde|fed cAF|GFE D2:|

%%%

